icon-themes/elementary_svg/cmd/32/insertannotation.svg

<svg height="32" width="32" xmlns="http://www.w3.org/2000/svg" xmlns:xlink="http://www.w3.org/1999/xlink"><linearGradient id="a" gradientTransform="matrix(.42269325 0 0 .38513145 14.544843 15.082967)" gradientUnits="userSpaceOnUse" x1="24.138529" x2="24.138529" y1="10.170639" y2="36.135799"><stop offset="0" stop-color="#fff"/><stop offset="0" stop-color="#fff" stop-opacity=".235294"/><stop offset="1" stop-color="#fff" stop-opacity=".156863"/><stop offset="1" stop-color="#fff" stop-opacity=".392157"/></linearGradient><linearGradient id="b" gradientTransform="matrix(.38833389 0 0 .41842122 15.301011 14.318351)" gradientUnits="userSpaceOnUse" x1="24.138529" x2="24.138529" y1="20.748587" y2="25.52846"><stop offset="0" stop-color="#fff"/><stop offset=".00000003" stop-color="#fff" stop-opacity=".235294"/><stop offset="1" stop-color="#fff" stop-opacity=".156863"/><stop offset="1" stop-color="#fff" stop-opacity=".392157"/></linearGradient><radialGradient id="c" cx="6.702713" cy="73.615715" gradientTransform="matrix(1.962544 0 0 .3559079 -.239114 3.226934)" gradientUnits="userSpaceOnUse" r="7.228416"><stop offset="0" stop-opacity=".325581"/><stop offset=".5" stop-opacity=".192157"/><stop offset="1" stop-opacity="0"/></radialGradient><radialGradient id="d" cx="21.959826" cy="-6.637001" gradientTransform="matrix(-.00816381 1.5058602 -1.5421789 -.00836067 -1.939273 -18.637832)" gradientUnits="userSpaceOnUse" r="11.508719"><stop offset="0" stop-color="#fff3cb"/><stop offset=".26238" stop-color="#fdde76"/><stop offset=".66093999" stop-color="#f9c440"/><stop offset="1" stop-color="#e48b20"/></radialGradient><linearGradient id="e" gradientTransform="matrix(.52015924 -.04736747 .0511541 .56654328 -1.569401 7.520321)" gradientUnits="userSpaceOnUse" x1="27.260933" x2="25.010578" y1="11.249186" y2="31.264799"><stop offset="0" stop-color="#fff"/><stop offset=".33380178" stop-color="#fff" stop-opacity=".235294"/><stop offset=".67927718" stop-color="#fff" stop-opacity=".156863"/><stop offset="1" stop-color="#fff" stop-opacity=".392157"/></linearGradient><linearGradient id="f" gradientUnits="userSpaceOnUse" x1="6.785522" x2="10.909406" y1="12.748032" y2="18.748032"><stop offset="0" stop-color="#fff" stop-opacity=".702"/><stop offset="1" stop-color="#fff" stop-opacity="0"/></linearGradient><radialGradient id="g" cx="65.325226" cy="48.709068" gradientTransform="matrix(0 .68597915 -.7462606 0 60.288383 -27.737493)" gradientUnits="userSpaceOnUse" r="31.000002"><stop offset="0" stop-color="#cdf87e"/><stop offset=".26238" stop-color="#a2e34f"/><stop offset=".66093999" stop-color="#68b723"/><stop offset="1" stop-color="#1d7e0d"/></radialGradient><g transform="matrix(1.2553115 0 0 1.2553115 .89411 -9.341999)"><path d="m10.440348 10.395488c-5.636097.829707-9.806467 4.707207-9.427543 8.905512.245369 2.718574 2.33505 4.956193 5.323376 6.136791l-1.247369 4.853248 5.518268-3.985027.03815-.0035c.680994.0325 1.365148.04327 2.075104-.0214 6.05829-.551901 10.664405-4.577194 10.266843-8.981971-.39756-4.404778-5.649239-7.5320378-11.707529-6.980136-.283982.02587-.562113.03565-.839299.07646z" fill="url(#d)" fill-rule="evenodd"/><path d="m10.627833 11.237452c-4.8285467.701926-9.0860716 3.826011-8.7502536 8.056163.2255573 2.841259 2.873475 4.769288 5.6273634 5.665593l-1.0107838 3.198549 3.767576-2.674977c.583099.02527 1.693807.07039 2.301942.015 4.59818-.418725 10.189139-3.886097 9.657349-8.108347-.538412-4.274811-5.637831-6.717561-10.874267-6.217449-.243151.02322-.481457.03095-.718926.06547z" fill="none" opacity=".8" stroke="url(#e)" stroke-width=".796615"/><path d="m10.440349 10.395493c-5.6360944.829706-9.80646253 4.707204-9.4275387 8.905507.2453689 2.718573 2.335049 4.956191 5.3233735 6.136789l-1.2473684 4.853245 5.5182656-3.985025.03815-.0035c.680993.0325 1.365147.04327 2.075103-.0214 6.058287-.551901 10.6644-4.577192 10.266838-8.981967-.39756-4.404775-5.649237-7.5320335-11.707524-6.980132-.283982.02587-.562112.03565-.839298.07646z" fill="url(#f)" fill-rule="evenodd"/><path d="m27.101338 29.42735c0 1.420835-6.351327 2.57265-14.186083 2.57265-7.834758 0-14.1860838-1.151815-14.1860838-2.57265 0-1.420836 6.3513258-2.572651 14.1860838-2.572651 7.834756 0 14.186083 1.151815 14.186083 2.572651z" fill="url(#c)" opacity=".4"/><path d="m10.440348 10.395488c-5.636097.829707-9.806467 4.707207-9.427543 8.905512.245369 2.718574 2.33505 4.956193 5.323376 6.136791l-1.247369 4.853248 5.518268-3.985027.03815-.0035c.680994.0325 1.365148.04327 2.075104-.0214 6.05829-.551901 10.664405-4.577194 10.266843-8.981971-.39756-4.404778-5.649239-7.5320381-11.707529-6.980136-.283982.02587-.562113.03565-.839299.07646z" fill="none" opacity=".5" stroke="#956500" stroke-linejoin="round" stroke-width=".796615"/><g transform="matrix(.79661502 0 0 .79661502 -.712262 7.447448)"><path d="m21.5 21.5v-4.021022h5v4.021022h4.007287v5h-4.007287v4.007286h-5v-4.007286h-4.007286v-5z" fill="url(#g)"/><g fill="none"><path d="m22.5 23.003028v-4.503028h3v4.496972m0 2.003028v4.5h-3v-4.5" opacity=".5" stroke="url(#a)"/><path d="m26 22.512298 3.499869-.01086v2.987703l-3.499869.01086m-4 0-3.500131-.01086v-2.987703l3.500131.01086" opacity=".5" stroke="url(#b)"/><path d="m21.5 21.5v-4.021022h5v4.021022h4.007287v5h-4.007287v4.007286h-5v-4.007286h-4.007286v-5z" opacity=".5" stroke="#0f5a00" stroke-linecap="round" stroke-linejoin="round"/></g></g></g></svg>

<?xml version="1.0" encoding="UTF-8" standalone="no"?>
<svg
   xmlns:dc="http://purl.org/dc/elements/1.1/"
   xmlns:cc="http://creativecommons.org/ns#"
   xmlns:rdf="http://www.w3.org/1999/02/22-rdf-syntax-ns#"
   xmlns:svg="http://www.w3.org/2000/svg"
   xmlns="http://www.w3.org/2000/svg"
   xmlns:xlink="http://www.w3.org/1999/xlink"
   xmlns:sodipodi="http://sodipodi.sourceforge.net/DTD/sodipodi-0.dtd"
   xmlns:inkscape="http://www.inkscape.org/namespaces/inkscape"
   id="svg3182"
   height="32"
   width="32"
   version="1.1"
   sodipodi:docname="insertannotation.svg"
   inkscape:export-filename="/home/rizmut/Dokumen/Rizmut/Github/libreoffice-style-elementary/images_elementary/cmd/32/insertannotation.png"
   inkscape:export-xdpi="96"
   inkscape:export-ydpi="96"
   inkscape:version="0.92.3 (unknown)">
  <sodipodi:namedview
     pagecolor="#ffffff"
     bordercolor="#666666"
     borderopacity="1"
     objecttolerance="10"
     gridtolerance="10"
     guidetolerance="10"
     inkscape:pageopacity="0"
     inkscape:pageshadow="2"
     inkscape:window-width="1366"
     inkscape:window-height="706"
     id="namedview1342"
     showgrid="true"
     inkscape:zoom="5.6568543"
     inkscape:cx="-0.3366314"
     inkscape:cy="-1.8942786"
     inkscape:window-x="0"
     inkscape:window-y="0"
     inkscape:window-maximized="1"
     inkscape:current-layer="g3019"
     inkscape:snap-global="false">
    <inkscape:grid
       type="xygrid"
       id="grid2982" />
  </sodipodi:namedview>
  <defs
     id="defs3184">
    <linearGradient
       id="linearGradient3977">
      <stop
         offset="0"
         style="stop-color:#ffffff;stop-opacity:1"
         id="stop3979" />
      <stop
         offset="0.03626217"
         style="stop-color:#ffffff;stop-opacity:0.23529412"
         id="stop3981" />
      <stop
         offset="0.95056331"
         style="stop-color:#ffffff;stop-opacity:0.15686275"
         id="stop3983" />
      <stop
         offset="1"
         style="stop-color:#ffffff;stop-opacity:0.39215687"
         id="stop3985" />
    </linearGradient>
    <linearGradient
       id="linearGradient3600-4">
      <stop
         offset="0"
         style="stop-color:#f4f4f4;stop-opacity:1"
         id="stop3602-7" />
      <stop
         offset="1"
         style="stop-color:#dbdbdb;stop-opacity:1"
         id="stop3604-6" />
    </linearGradient>
    <linearGradient
       id="linearGradient5060">
      <stop
         offset="0"
         style="stop-color:#000000;stop-opacity:1"
         id="stop5062" />
      <stop
         offset="1"
         style="stop-color:#000000;stop-opacity:0"
         id="stop5064" />
    </linearGradient>
    <linearGradient
       id="linearGradient5048">
      <stop
         offset="0"
         style="stop-color:#000000;stop-opacity:0"
         id="stop5050" />
      <stop
         offset="0.5"
         style="stop-color:#000000;stop-opacity:1"
         id="stop5056" />
      <stop
         offset="1"
         style="stop-color:#000000;stop-opacity:0"
         id="stop5052" />
    </linearGradient>
    <linearGradient
       gradientTransform="matrix(0.56756757,0,0,0.72972971,2.378382,-2.5135063)"
       gradientUnits="userSpaceOnUse"
       xlink:href="#linearGradient3977"
       id="linearGradient3013"
       y2="43"
       x2="23.99999"
       y1="5.5641499"
       x1="23.99999" />
    <linearGradient
       gradientTransform="matrix(0.62856997,0,0,0.60839392,0.91431981,-0.5347905)"
       gradientUnits="userSpaceOnUse"
       xlink:href="#linearGradient3600-4"
       id="linearGradient3016"
       y2="47.013336"
       x2="25.132275"
       y1="0.98520643"
       x1="25.132275" />
    <radialGradient
       gradientTransform="matrix(0.01566318,0,0,0.00823529,17.610433,25.980565)"
       gradientUnits="userSpaceOnUse"
       xlink:href="#linearGradient5060"
       id="radialGradient3021"
       fy="486.64789"
       fx="605.71429"
       r="117.14286"
       cy="486.64789"
       cx="605.71429" />
    <radialGradient
       gradientTransform="matrix(-0.01566318,0,0,0.00823529,14.389566,25.980565)"
       gradientUnits="userSpaceOnUse"
       xlink:href="#linearGradient5060"
       id="radialGradient3024"
       fy="486.64789"
       fx="605.71429"
       r="117.14286"
       cy="486.64789"
       cx="605.71429" />
    <linearGradient
       gradientTransform="matrix(0.04576928,0,0,0.00823529,-0.5423243,25.980548)"
       gradientUnits="userSpaceOnUse"
       xlink:href="#linearGradient5048"
       id="linearGradient3027"
       y2="609.50507"
       x2="302.85715"
       y1="366.64789"
       x1="302.85715" />
    <linearGradient
       id="linearGradient3104-6">
      <stop
         id="stop3106-3"
         style="stop-color:#000000;stop-opacity:0.31782946"
         offset="0" />
      <stop
         id="stop3108-9"
         style="stop-color:#000000;stop-opacity:0.24031007"
         offset="1" />
    </linearGradient>
    <linearGradient
       y2="2.9062471"
       x2="-51.786404"
       y1="50.786446"
       x1="-51.786404"
       gradientTransform="matrix(0.53064141,0,0,0.58970049,39.269607,-1.791918)"
       gradientUnits="userSpaceOnUse"
       id="linearGradient3148"
       xlink:href="#linearGradient3104-6" />
    <radialGradient
       gradientTransform="matrix(0,0.68597915,-0.7462606,0,60.288383,-27.737493)"
       gradientUnits="userSpaceOnUse"
       xlink:href="#linearGradient3242-7-3-8-0-4-58-06"
       id="radialGradient3343"
       fy="48.709068"
       fx="65.325226"
       r="31.000002"
       cy="48.709068"
       cx="65.325226" />
    <linearGradient
       id="linearGradient3242-7-3-8-0-4-58-06">
      <stop
         id="stop3244-5-8-5-6-4-3-8"
         style="stop-color:#cdf87e;stop-opacity:1"
         offset="0" />
      <stop
         id="stop3246-9-5-1-5-3-0-7"
         style="stop-color:#a2e34f;stop-opacity:1"
         offset="0.26238" />
      <stop
         id="stop3248-7-2-0-7-5-35-9"
         style="stop-color:#68b723;stop-opacity:1"
         offset="0.66093999" />
      <stop
         id="stop3250-8-2-8-5-6-40-4"
         style="stop-color:#1d7e0d;stop-opacity:1"
         offset="1" />
    </linearGradient>
    <linearGradient
       gradientTransform="matrix(0.42269325,0,0,0.38513145,14.544843,15.082967)"
       gradientUnits="userSpaceOnUse"
       xlink:href="#linearGradient4154"
       id="linearGradient3030"
       y2="36.135799"
       x2="24.138529"
       y1="10.170639"
       x1="24.138529" />
    <linearGradient
       id="linearGradient4154">
      <stop
         offset="0"
         style="stop-color:#ffffff;stop-opacity:1"
         id="stop4156" />
      <stop
         offset="0"
         style="stop-color:#ffffff;stop-opacity:0.23529412"
         id="stop4158" />
      <stop
         offset="1"
         style="stop-color:#ffffff;stop-opacity:0.15686275"
         id="stop4160" />
      <stop
         offset="1"
         style="stop-color:#ffffff;stop-opacity:0.39215687"
         id="stop4162" />
    </linearGradient>
    <linearGradient
       gradientTransform="matrix(0.38833389,0,0,0.41842122,15.301011,14.318351)"
       gradientUnits="userSpaceOnUse"
       xlink:href="#linearGradient4333"
       id="linearGradient3030-1"
       y2="25.52846"
       x2="24.138529"
       y1="20.748587"
       x1="24.138529" />
    <linearGradient
       id="linearGradient4333">
      <stop
         id="stop4335"
         style="stop-color:#ffffff;stop-opacity:1"
         offset="0" />
      <stop
         id="stop4337"
         style="stop-color:#ffffff;stop-opacity:0.23529412"
         offset="0.00000003" />
      <stop
         id="stop4339"
         style="stop-color:#ffffff;stop-opacity:0.15686275"
         offset="1" />
      <stop
         id="stop4341"
         style="stop-color:#ffffff;stop-opacity:0.39215687"
         offset="1" />
    </linearGradient>
    <linearGradient
       id="g"
       gradientTransform="matrix(1.0320426,0,0,1.0681612,43.35048,7.5061909)"
       gradientUnits="userSpaceOnUse"
       x1="-31"
       x2="-36"
       y1="12"
       y2="6">
      <stop
         offset="0"
         stop-color="#1f1f1f"
         id="stop30" />
      <stop
         offset="1"
         stop-color="#5c5c5c"
         id="stop32" />
    </linearGradient>
    <radialGradient
       cx="24.837126"
       cy="36.421127"
       r="15.644737"
       fx="24.837126"
       fy="36.421127"
       id="radialGradient3173"
       xlink:href="#linearGradient5060"
       gradientUnits="userSpaceOnUse"
       gradientTransform="matrix(-0.38351555,0,0,-0.25567694,23.275669,32.384178)" />
    <linearGradient
       x1="27.974298"
       y1="36.127529"
       x2="27.974298"
       y2="-1.1839229"
       id="linearGradient3162"
       xlink:href="#linearGradient3242-7-3-8-0-4-58-06"
       gradientUnits="userSpaceOnUse"
       gradientTransform="matrix(0.39222363,0,0,-0.36562471,5.8278194,26.163568)" />
    <linearGradient
       gradientTransform="matrix(0,-0.39571558,0.42801014,0,7.4033107,31.903618)"
       gradientUnits="userSpaceOnUse"
       xlink:href="#linearGradient4087"
       id="linearGradient3855"
       y2="15.991243"
       x2="20.576487"
       y1="15.41246"
       x1="45.243652" />
    <linearGradient
       id="linearGradient4087">
      <stop
         id="stop4089"
         style="stop-color:#ffffff;stop-opacity:1"
         offset="0" />
      <stop
         id="stop4091"
         style="stop-color:#ffffff;stop-opacity:0.23529412"
         offset="0.51153916" />
      <stop
         id="stop4093"
         style="stop-color:#ffffff;stop-opacity:0.15686275"
         offset="0.58522105" />
      <stop
         id="stop4095"
         style="stop-color:#ffffff;stop-opacity:0.39215687"
         offset="1" />
    </linearGradient>
    <linearGradient
       id="b">
      <stop
         offset="0"
         stop-color="#737373"
         id="stop3" />
      <stop
         offset=".26238"
         stop-color="#636363"
         id="stop5" />
      <stop
         offset=".704952"
         stop-color="#4b4b4b"
         id="stop7" />
      <stop
         offset="1"
         stop-color="#3f3f3f"
         id="stop9" />
    </linearGradient>
    <radialGradient
       id="a"
       cx="6.702713"
       cy="73.615715"
       gradientTransform="matrix(1.962544,0,0,0.3559079,-0.239114,3.2269338)"
       gradientUnits="userSpaceOnUse"
       r="7.228416">
      <stop
         offset="0"
         stop-opacity=".325581"
         id="stop2" />
      <stop
         offset=".5"
         stop-opacity=".192157"
         id="stop4" />
      <stop
         offset="1"
         stop-opacity="0"
         id="stop6" />
    </radialGradient>
    <radialGradient
       id="b-3"
       cx="21.959826"
       cy="-6.637001"
       gradientTransform="matrix(-0.00816381,1.5058602,-1.5421789,-0.00836067,-1.939273,-18.637832)"
       gradientUnits="userSpaceOnUse"
       r="11.508719">
      <stop
         offset="0"
         stop-color="#fff3cb"
         id="stop9-5" />
      <stop
         offset=".26238"
         stop-color="#fdde76"
         id="stop11" />
      <stop
         offset=".66093999"
         stop-color="#f9c440"
         id="stop13" />
      <stop
         offset="1"
         stop-color="#e48b20"
         id="stop15" />
    </radialGradient>
    <linearGradient
       id="c"
       gradientTransform="matrix(0.52015924,-0.04736747,0.0511541,0.56654328,-1.5694012,7.520321)"
       gradientUnits="userSpaceOnUse"
       x1="27.260933"
       x2="25.010578"
       y1="11.249186"
       y2="31.264799">
      <stop
         offset="0"
         stop-color="#fff"
         id="stop18" />
      <stop
         offset=".33380178"
         stop-color="#fff"
         stop-opacity=".235294"
         id="stop20" />
      <stop
         offset=".67927718"
         stop-color="#fff"
         stop-opacity=".156863"
         id="stop22" />
      <stop
         offset="1"
         stop-color="#fff"
         stop-opacity=".392157"
         id="stop24" />
    </linearGradient>
    <linearGradient
       gradientTransform="translate(5.7712165e-6,8.0000057)"
       id="d"
       gradientUnits="userSpaceOnUse"
       x1="6.7855158"
       x2="10.9094"
       y1="4.7480259"
       y2="10.748026">
      <stop
         offset="0"
         stop-color="#fff"
         stop-opacity=".702"
         id="stop27" />
      <stop
         offset="1"
         stop-color="#fff"
         stop-opacity="0"
         id="stop29" />
    </linearGradient>
    <radialGradient
       cx="65.325226"
       cy="48.709068"
       r="31.000002"
       fx="65.325226"
       fy="48.709068"
       id="radialGradient3343-7"
       xlink:href="#linearGradient3242-7-3-8-0-4-58-06"
       gradientUnits="userSpaceOnUse"
       gradientTransform="matrix(0,0.68597915,-0.7462606,0,60.288383,-27.737493)" />
  </defs>
  <metadata
     id="metadata3187">
    <rdf:RDF>
      <cc:Work
         rdf:about="">
        <dc:format>image/svg+xml</dc:format>
        <dc:type
           rdf:resource="http://purl.org/dc/dcmitype/StillImage" />
        <dc:title></dc:title>
      </cc:Work>
    </rdf:RDF>
  </metadata>
  <g
     id="g3019"
     transform="matrix(1.2553115,0,0,1.2553115,0.89411015,-9.341999)">
    <path
       id="path34"
       d="M 10.440348,10.395488 C 4.804251,11.225195 0.633881,15.102695 1.012805,19.301 c 0.245369,2.718574 2.33505,4.956193 5.323376,6.136791 l -1.247369,4.853248 5.518268,-3.985027 0.03815,-0.0035 c 0.680994,0.0325 1.365148,0.04327 2.075104,-0.0214 6.05829,-0.551901 10.664405,-4.577194 10.266843,-8.981971 -0.39756,-4.404778 -5.649239,-7.5320378 -11.707529,-6.980136 -0.283982,0.02587 -0.562113,0.03565 -0.839299,0.07646 z"
       style="fill:url(#b-3);fill-rule:evenodd"
       inkscape:connector-curvature="0" />
    <path
       id="path36"
       d="m 10.627833,11.237452 c -4.8285467,0.701926 -9.0860716,3.826011 -8.7502536,8.056163 0.2255573,2.841259 2.873475,4.769288 5.6273634,5.665593 L 6.494159,28.157757 10.261735,25.48278 c 0.583099,0.02527 1.693807,0.07039 2.301942,0.015 4.59818,-0.418725 10.189139,-3.886097 9.657349,-8.108347 -0.538412,-4.274811 -5.637831,-6.717561 -10.874267,-6.217449 -0.243151,0.02322 -0.481457,0.03095 -0.718926,0.06547 z"
       style="opacity:0.8;fill:none;stroke:url(#c);stroke-width:0.79661502;stroke-miterlimit:4;stroke-dasharray:none"
       inkscape:connector-curvature="0" />
    <path
       id="path40"
       d="M 10.440349,10.395493 C 4.8042546,11.225199 0.63388647,15.102697 1.0128103,19.301 c 0.2453689,2.718573 2.335049,4.956191 5.3233735,6.136789 l -1.2473684,4.853245 5.5182656,-3.985025 0.03815,-0.0035 c 0.680993,0.0325 1.365147,0.04327 2.075103,-0.0214 6.058287,-0.551901 10.6644,-4.577192 10.266838,-8.981967 -0.39756,-4.404775 -5.649237,-7.5320335 -11.707524,-6.980132 -0.283982,0.02587 -0.562112,0.03565 -0.839298,0.07646 z"
       style="fill:url(#d);fill-rule:evenodd"
       inkscape:connector-curvature="0" />
    <path
       id="path32"
       d="M 27.101338,29.42735 C 27.101338,30.848185 20.750011,32 12.915255,32 5.080497,32 -1.2708288,30.848185 -1.2708288,29.42735 c 0,-1.420836 6.3513258,-2.572651 14.1860838,-2.572651 7.834756,0 14.186083,1.151815 14.186083,2.572651 z"
       style="opacity:0.4;fill:url(#a)"
       inkscape:connector-curvature="0" />
    <path
       id="path38"
       d="M 10.440348,10.395488 C 4.804251,11.225195 0.633881,15.102695 1.012805,19.301 c 0.245369,2.718574 2.33505,4.956193 5.323376,6.136791 l -1.247369,4.853248 5.518268,-3.985027 0.03815,-0.0035 c 0.680994,0.0325 1.365148,0.04327 2.075104,-0.0214 6.05829,-0.551901 10.664405,-4.577194 10.266843,-8.981971 -0.39756,-4.404778 -5.649239,-7.5320381 -11.707529,-6.980136 -0.283982,0.02587 -0.562113,0.03565 -0.839299,0.07646 z"
       style="opacity:0.5;fill:none;stroke:#956500;stroke-width:0.79661502;stroke-linejoin:round;stroke-miterlimit:4;stroke-dasharray:none"
       inkscape:connector-curvature="0" />
    <g
       id="g4374"
       transform="matrix(0.79661502,0,0,0.79661502,-0.71226152,7.447448)">
      <path
         inkscape:connector-curvature="0"
         d="m 21.5,21.5 v -4.021022 h 5 V 21.5 h 4.007287 v 5 H 26.5 v 4.007286 h -5 V 26.5 h -4.007286 v -5 z"
         id="path2262"
         style="color:#000000;display:inline;overflow:visible;visibility:visible;fill:url(#radialGradient3343-7);fill-opacity:1;fill-rule:nonzero;stroke:none;stroke-width:0.98542744;stroke-linecap:round;stroke-linejoin:round;stroke-miterlimit:4;stroke-dasharray:none;stroke-dashoffset:0;stroke-opacity:1;marker:none;enable-background:accumulate" />
      <path
         inkscape:connector-curvature="0"
         style="display:inline;opacity:0.5;fill:none;stroke:url(#linearGradient3030);stroke-width:1;stroke-linecap:butt;stroke-linejoin:miter;stroke-miterlimit:4;stroke-dasharray:none;stroke-opacity:1"
         id="path2272-4"
         d="M 22.5,23.003028 V 18.5 h 3 v 4.496972 M 25.5,25 v 4.5 h -3 V 25" />
      <path
         inkscape:connector-curvature="0"
         style="display:inline;opacity:0.5;fill:none;stroke:url(#linearGradient3030-1);stroke-width:0.99999994;stroke-linecap:butt;stroke-linejoin:miter;stroke-miterlimit:4;stroke-dasharray:none;stroke-opacity:1"
         id="path2272-2"
         d="m 26,22.512298 3.499869,-0.01086 v 2.987703 L 26,25.500001 m -4,0 -3.500131,-0.01086 V 22.501438 L 22,22.512298" />
      <path
         inkscape:connector-curvature="0"
         d="m 21.5,21.5 v -4.021022 h 5 V 21.5 h 4.007287 v 5 H 26.5 v 4.007286 h -5 V 26.5 h -4.007286 v -5 z"
         id="path2262-9"
         style="color:#000000;clip-rule:nonzero;display:inline;overflow:visible;visibility:visible;opacity:0.5;isolation:auto;mix-blend-mode:normal;color-interpolation:sRGB;color-interpolation-filters:linearRGB;solid-color:#000000;solid-opacity:1;fill:none;fill-opacity:1;fill-rule:nonzero;stroke:#0f5a00;stroke-width:1;stroke-linecap:round;stroke-linejoin:round;stroke-miterlimit:4;stroke-dasharray:none;stroke-dashoffset:0;stroke-opacity:1;marker:none;color-rendering:auto;image-rendering:auto;shape-rendering:auto;text-rendering:auto;enable-background:accumulate" />
    </g>
  </g>
</svg>
